svgs/regular/arrow-down-up-across-line.svg

<svg xmlns="http://www.w3.org/2000/svg" viewBox="0 0 576 512"><!--! Font Awesome Pro 6.6.0 by @fontawesome - https://fontawesome.com License - https://fontawesome.com/license (Commercial License) Copyright 2024 Fonticons, Inc. --><path d="M143 505c9.4 9.4 24.6 9.4 33.9 0l96-96c9.4-9.4 9.4-24.6 0-33.9s-24.6-9.4-33.9 0l-55 55L184 280l368 0c13.3 0 24-10.7 24-24s-10.7-24-24-24l-112 0 0-150.1 55 55c9.4 9.4 24.6 9.4 33.9 0s9.4-24.6 0-33.9L433 7c-9.4-9.4-24.6-9.4-33.9 0l-96 96c-9.4 9.4-9.4 24.6 0 33.9s24.6 9.4 33.9 0l55-55L392 232l-208 0-48 0L24 232c-13.3 0-24 10.7-24 24s10.7 24 24 24l112 0 0 150.1L81 375c-9.4-9.4-24.6-9.4-33.9 0s-9.4 24.6 0 33.9l96 96zm-7-313l48 0 0-136c0-13.3-10.7-24-24-24s-24 10.7-24 24l0 136zM440 320l-48 0 0 136c0 13.3 10.7 24 24 24s24-10.7 24-24l0-136z"/></svg>

<svg xmlns="http://www.w3.org/2000/svg" viewBox="0 0 576 512"><!--! Font Awesome Pro 6.4.0 by @fontawesome - https://fontawesome.com License - https://fontawesome.com/license (Commercial License) Copyright 2023 Fonticons, Inc. --><path d="M143 505c9.4 9.4 24.6 9.4 33.9 0l96-96c9.4-9.4 9.4-24.6 0-33.9s-24.6-9.4-33.9 0l-55 55V280H552c13.3 0 24-10.7 24-24s-10.7-24-24-24H440V81.9l55 55c9.4 9.4 24.6 9.4 33.9 0s9.4-24.6 0-33.9L433 7c-9.4-9.4-24.6-9.4-33.9 0l-96 96c-9.4 9.4-9.4 24.6 0 33.9s24.6 9.4 33.9 0l55-55V232H184 136 24c-13.3 0-24 10.7-24 24s10.7 24 24 24H136V430.1L81 375c-9.4-9.4-24.6-9.4-33.9 0s-9.4 24.6 0 33.9l96 96zm-7-313h48V56c0-13.3-10.7-24-24-24s-24 10.7-24 24V192zM440 320H392V456c0 13.3 10.7 24 24 24s24-10.7 24-24V320z"/></svg>
